X:0624
T:Loch Vach.
M:C
L:1/8
Q:1/2=108
N:G2 at end of first part added, printed bar reads |g<eTD>B G/G/G::
I: :: :|
Z:Jack Campin * www.campin.me.uk * 2009
K:G
dBGB dgdB|egdB A/A/A  A2|dBGB dgdB |g<eTd>B G/G/G G2:|
gaba gedg|egdb a/a/a Ta2|gaba gedg |e<gTd>B G/G/G G2 |
gaba gedg|egdb a/a/a Ta2|gaba c'afd|e<aTd>B G/G/G G2|]
<end>
<start>
